brandFactory_export/3.Masa/Documento_Archivo musica_3Masa.svg

<?xml version="1.0" encoding="UTF-8"?>
<svg width="24px" height="24px" viewBox="0 0 24 24" version="1.1" xmlns="http://www.w3.org/2000/svg" xmlns:xlink="http://www.w3.org/1999/xlink">
    <title>3.Masa/Documento_Archivo musica_3Masa</title>
    <g id="Symbols" stroke="none" stroke-width="1" fill="none" fill-rule="evenodd">
        <g id="3.Masa/Documento_Archivo-musica_3Masa" fill="#5CB615" fill-rule="nonzero">
            <path d="M13.8470588,2.00336134 L13.8470588,4.1210084 C13.8470588,4.91092437 14.102521,5.57647059 14.5831933,6.05042017 C15.0705882,6.52773109 15.7596639,6.78319328 16.5798319,6.78319328 L18.707563,6.78319328 L13.8470588,2.00336134 Z M20.687395,6.91092437 C20.7243697,6.99831933 20.7445378,7.09579832 20.7445378,7.19663866 L20.7445378,21.9630252 C20.7445378,22.8638655 19.9815126,23.6235294 19.0806723,23.6235294 L4.6907563,23.6235294 C3.80336134,23.6235294 3.02689076,22.8470588 3.02689076,21.9630252 L3.02689076,1.6605042 C3.02689076,0.789915966 3.82016807,0 4.6907563,0 L13.4504202,0 C13.7226891,0 13.9815126,0.104201681 14.1764706,0.299159664 L20.4319328,6.45042017 C20.5630252,6.57815126 20.6403361,6.74285714 20.687395,6.91092437 Z M15.2756303,12.3831933 L10.7848739,11.1462185 L10.7848739,10.4134454 L15.2756303,11.6504202 L15.2756303,12.3831933 Z M14.3478992,19.6907563 L14.2235294,19.6907563 C13.6084034,19.6806723 13.2991597,19.3411765 13.2991597,18.6789916 C13.2991597,18.4336134 13.2991597,17.687395 14.2067227,17.6773109 L14.3411765,17.6773109 C14.9630252,17.6941176 15.2756303,18.0336134 15.2756303,18.6857143 C15.2756303,19.3411765 14.9630252,19.6773109 14.3478992,19.6907563 Z M8.62689076,17.2806723 L8.48907563,17.2806723 C7.87731092,17.2705882 7.56470588,16.9310924 7.56470588,16.2689076 C7.56470588,16.0235294 7.56470588,15.2773109 8.47226891,15.2705882 L8.60336134,15.2705882 C9.22521008,15.2840336 9.54117647,15.6268908 9.54117647,16.2823529 C9.54117647,16.9310924 9.22857143,17.2672269 8.62689076,17.2806723 L8.62689076,17.2806723 Z M15.7630252,10.4739496 L10.5697479,9.04201681 L10.4084034,9.01848739 C9.93109244,9.01848739 9.54453782,9.41176471 9.54453782,9.89915966 L9.54453782,14.2084034 C9.2487395,14.0806723 8.93613445,14.0134454 8.63697479,14.0067227 L8.46554622,14.0067227 C7.47731092,14.0168067 6.32436975,14.6151261 6.32436975,16.2722689 C6.32436975,17.9294118 7.48067227,18.5344538 8.47226891,18.5478992 L8.64369748,18.5478992 C9.59495798,18.5277311 10.6907563,17.9563025 10.7747899,16.4537815 L10.7915966,12.4571429 L15.2823529,13.697479 L15.2823529,16.6218487 C14.9865546,16.4941176 14.6739496,16.4268908 14.3747899,16.4201681 L14.2033613,16.4168067 C13.2151261,16.4268908 12.0621849,17.0252101 12.0621849,18.6823529 C12.0621849,20.3394958 13.2218487,20.9445378 14.210084,20.9579832 L14.3815126,20.9579832 C15.3731092,20.9378151 16.5294118,20.3361345 16.5294118,18.692437 L16.5294118,11.3546218 C16.5193277,10.897479 16.1865546,10.5277311 15.7630252,10.4739496 L15.7630252,10.4739496 Z" id="Documento_Archivo-musica_3Masa"></path>
        </g>
    </g>
</svg>

<svg width="24" height="24" viewBox="0 0 24 24" xmlns="http://www.w3.org/2000/svg"><path d="M13.847 2.003v2.118c0 .79.256 1.455.736 1.93.488.477 1.177.732 1.997.732h2.128l-4.86-4.78zm6.84 4.908a.735.735 0 01.058.286v14.766c0 .9-.763 1.66-1.664 1.66H4.69c-.888 0-1.664-.776-1.664-1.66V1.661C3.027.79 3.82 0 4.69 0h8.76c.272 0 .53.104.725.3l6.256 6.15c.131.128.208.293.255.46zm-5.411 5.472l-4.491-1.237v-.733l4.49 1.237v.733zm-.928 7.308h-.124c-.616-.01-.925-.35-.925-1.012 0-.245 0-.992.908-1.002h.134c.622.017.935.357.935 1.009 0 .655-.313.991-.928 1.005zm-5.721-2.41h-.138c-.612-.01-.924-.35-.924-1.012 0-.245 0-.992.907-.998h.131c.622.013.938.356.938 1.011 0 .65-.312.985-.914.999zm7.136-6.807L10.57 9.042l-.162-.024a.872.872 0 00-.863.881v4.31a2.446 2.446 0 00-.908-.202h-.171c-.989.01-2.142.608-2.142 2.265s1.157 2.262 2.148 2.276h.172c.951-.02 2.047-.592 2.13-2.094l.018-3.997 4.49 1.24v2.925a2.446 2.446 0 00-.907-.202l-.172-.003c-.988.01-2.14.608-2.14 2.265s1.159 2.263 2.147 2.276h.172c.991-.02 2.147-.622 2.147-2.266v-7.337a.896.896 0 00-.766-.881z" fill="#5CB615" fill-rule="nonzero"/></svg>
